images/eye.svg

<svg width="32" height="32" viewBox="0 0 32 32" fill="none" xmlns="http://www.w3.org/2000/svg">
<path d="M30.3333 16.7731C30.3364 16.9178 30.2893 17.0592 30.2 17.1731L23.3733 26.3064C23.3112 26.3902 23.231 26.4589 23.1387 26.5074C23.0463 26.5558 22.9442 26.5829 22.84 26.5864H9.17335C9.06684 26.5849 8.96212 26.5588 8.86732 26.5103C8.77251 26.4617 8.69017 26.392 8.62668 26.3064L1.80001 17.1731C1.71547 17.0569 1.66992 16.9168 1.66992 16.7731C1.66992 16.6294 1.71547 16.4893 1.80001 16.3731L8.62668 7.23976C8.69085 7.15592 8.77365 7.08818 8.86854 7.04189C8.96342 6.99561 9.06778 6.97205 9.17335 6.97309H22.84C22.9433 6.9741 23.0451 6.99864 23.1375 7.04485C23.2299 7.09105 23.3105 7.15771 23.3733 7.23976L30.2 16.3731C30.2874 16.488 30.3343 16.6287 30.3333 16.7731V16.7731ZM22.5067 25.2531L28.84 16.7731L22.5067 8.30642H9.50668L3.16001 16.7731L9.50668 25.2531H22.5067Z" fill="#95E1D3"/>
<path d="M22.7734 16.7732C22.7765 16.9179 22.7294 17.0593 22.6401 17.1732L19.5867 21.2665C19.5239 21.3486 19.4433 21.4152 19.3508 21.4614C19.2584 21.5077 19.1567 21.5322 19.0534 21.5332H12.9467C12.8434 21.5322 12.7417 21.5077 12.6493 21.4614C12.5569 21.4152 12.4762 21.3486 12.4134 21.2665L9.33339 17.1732C9.24251 17.0597 9.19299 16.9186 9.19299 16.7732C9.19299 16.6278 9.24251 16.4867 9.33339 16.3732L12.3867 12.2932C12.4473 12.2088 12.5275 12.1404 12.6204 12.094C12.7134 12.0475 12.8162 12.0244 12.9201 12.0265H19.0267C19.1306 12.0244 19.2334 12.0475 19.3263 12.094C19.4193 12.1404 19.4995 12.2088 19.5601 12.2932L22.6667 16.3732C22.7447 16.4914 22.7821 16.6318 22.7734 16.7732ZM18.6667 20.1999L21.3334 16.7732L18.6667 13.3332H13.3334L10.6667 16.7732L13.3334 20.1999H18.6667Z" fill="#95E1D3"/>
</svg>

<svg width="32" height="32" fill="none" xmlns="http://www.w3.org/2000/svg"><path d="M30.333 16.773a.627.627 0 0 1-.133.4l-6.827 9.133a.694.694 0 0 1-.533.28H9.173a.693.693 0 0 1-.546-.28L1.8 17.173a.68.68 0 0 1 0-.8L8.627 7.24a.68.68 0 0 1 .546-.267H22.84a.68.68 0 0 1 .533.267l6.827 9.133a.653.653 0 0 1 .133.4Zm-7.826 8.48 6.333-8.48-6.333-8.467h-13L3.16 16.773l6.347 8.48h13Z" fill="#95E1D3"/><path d="M22.773 16.773a.627.627 0 0 1-.133.4l-3.053 4.094a.679.679 0 0 1-.534.266h-6.106a.678.678 0 0 1-.534-.267l-3.08-4.093a.64.64 0 0 1 0-.8l3.054-4.08a.64.64 0 0 1 .533-.266h6.107a.64.64 0 0 1 .533.266l3.107 4.08a.653.653 0 0 1 .106.4ZM18.667 20.2l2.666-3.427-2.666-3.44h-5.334l-2.666 3.44 2.666 3.427h5.334Z" fill="#95E1D3"/></svg>
